X: 1
T: Ships Are Sailing
M: C|
Z: Mary Lou Knack; simplified by John Chambers
R: reel
K: EDor
|: ed \
| "Em"Beed BcdB | "D"AD F{E}D AD F{E}D | "Em"EDEF GFGA | Bdef gfed || "Em"Beed BcdB |
| "D"AD F{E}D AD F{E}D | "Em"EDEF GFGA | "D"Bded "Em"e2 :: ef | "Em"gfga bgeg | "D"fefg afdf |
| "Em"gfga bgeg | "D"fedf "Em"e2ef || "Em"gfga bgeg | "D"fefg afdf | "G"g2bg "D"f2af | "Em"edef gf :|
